svgs/charts/line-chart-up-02.svg

<svg width="24" height="24" viewBox="0 0 24 24" fill="none" xmlns="http://www.w3.org/2000/svg">
<path d="M21 21H4.6C4.03995 21 3.75992 21 3.54601 20.891C3.35785 20.7951 3.20487 20.6422 3.10899 20.454C3 20.2401 3 19.9601 3 19.4V3M21 7L15.5657 12.4343C15.3677 12.6323 15.2687 12.7313 15.1545 12.7684C15.0541 12.8011 14.9459 12.8011 14.8455 12.7684C14.7313 12.7313 14.6323 12.6323 14.4343 12.4343L12.5657 10.5657C12.3677 10.3677 12.2687 10.2687 12.1545 10.2316C12.0541 10.1989 11.9459 10.1989 11.8455 10.2316C11.7313 10.2687 11.6323 10.3677 11.4343 10.5657L7 15M21 7H17M21 7V11" stroke="#1C1D20" stroke-width="1.5" stroke-linecap="round" stroke-linejoin="round"/>
</svg>

<svg fill="none" xmlns="http://www.w3.org/2000/svg" viewBox="0 0 24 24"><path d="M21 21H4.6c-.56 0-.84 0-1.054-.109a1 1 0 0 1-.437-.437C3 20.24 3 19.96 3 19.4V3m18 4-5.434 5.434c-.198.198-.297.297-.412.334a.499.499 0 0 1-.309 0c-.114-.037-.213-.136-.41-.334l-1.87-1.868c-.197-.198-.296-.297-.41-.334a.499.499 0 0 0-.31 0c-.114.037-.213.136-.41.334L7 15m14-8h-4m4 0v4" stroke="#1C1D20" stroke-width="1.5" stroke-linecap="round" stroke-linejoin="round"/></svg>
